X: 1
T: Speed the Plow
T: Speed the Plogh
O: UK borderlands, ca.1785
B: Edward Light: Introduction to the art of playing on the harp, lute, guitar (London, 1785)
R: reel, hornpipe
Z: 2020 John Chambers <jc:trillian.mit.edu> 2020-7-26
S: https://www.facebook.com/groups/Fiddletuneoftheday/
S: https://www.facebook.com/groups/Fiddletuneoftheday/photos/
M: C|
L: 1/8
K: A
E2 \
|: "A"ABcd efec | eaec efec | "D"dfdB "A"cecA |\
[1,3 "B7"BdBA "E7"GEFG :|2,4 "E7"BdBG "A"A2 :|
|: (3efg |\
"A"a2ag aece | aAgA fAeA | "D"dfdB "A"cecA |\
[1,3 "B7"BdBA "E7"G2 :|2,4 "E7"BdBG "A"A2 :|
%%begintext ragged
%% If you like, lengthen the triplet to three 8th notes, and shorten the preceding notes.
%% Or play all the pickups as triplets. 
%%endtext
